image/svg/Fraunhofer-Gesellschaft_2009_logo.svg

<?xml version="1.0" encoding="UTF-8" standalone="no"?>
<!-- Created with Inkscape (http://www.inkscape.org/) by Marsupilami -->

<svg
   xmlns:dc="http://purl.org/dc/elements/1.1/"
   xmlns:cc="http://creativecommons.org/ns#"
   xmlns:rdf="http://www.w3.org/1999/02/22-rdf-syntax-ns#"
   xmlns:svg="http://www.w3.org/2000/svg"
   xmlns="http://www.w3.org/2000/svg"
   xmlns:sodipodi="http://sodipodi.sourceforge.net/DTD/sodipodi-0.dtd"
   xmlns:inkscape="http://www.inkscape.org/namespaces/inkscape"
   version="1.0"
   width="170.06"
   height="28.000038"
   viewBox="-0.45915 -0.45915 15.590081 2.5664012"
   id="svg5346"
   inkscape:version="0.91 r13725"
   sodipodi:docname="Fraunhofer-Gesellschaft_2009_logo.svg"
   inkscape:export-filename="C:\Users\sanchal6\Desktop\CV\svg\Fraunhofer-Gesellschaft_2009_logo.png"
   inkscape:export-xdpi="90"
   inkscape:export-ydpi="90">
  <metadata
     id="metadata9">
    <rdf:RDF>
      <cc:Work
         rdf:about="">
        <dc:format>image/svg+xml</dc:format>
        <dc:type
           rdf:resource="http://purl.org/dc/dcmitype/StillImage" />
        <dc:title></dc:title>
      </cc:Work>
    </rdf:RDF>
  </metadata>
  <sodipodi:namedview
     pagecolor="#ffffff"
     bordercolor="#666666"
     borderopacity="1"
     objecttolerance="10"
     gridtolerance="10"
     guidetolerance="10"
     inkscape:pageopacity="0"
     inkscape:pageshadow="2"
     inkscape:window-width="1366"
     inkscape:window-height="715"
     id="namedview7"
     showgrid="false"
     fit-margin-top="0"
     fit-margin-left="0"
     fit-margin-right="0"
     fit-margin-bottom="0"
     inkscape:zoom="2.25"
     inkscape:cx="23.812395"
     inkscape:cy="19.235686"
     inkscape:window-x="-8"
     inkscape:window-y="-8"
     inkscape:window-maximized="1"
     inkscape:current-layer="svg5346" />
  <defs
     id="defs5348" />
  <g
     id="g3337"
     transform="matrix(0.16771484,0,0,0.16771484,-0.45914999,-0.46064884)">
    <path
       style="fill:#009374;fill-opacity:1;fill-rule:nonzero;stroke:none"
       id="path4341"
       d="M 0,0 0,4.21875 C 0.32875,4.1975 0.6575,4.15125 1,4.125 4.66624,3.84374 9.665,3.2075 15.0625,0.875 L 15.0625,0 0,0 Z M 15.0625,1.21875 C 9.75124,3.6 4.44625,4.61 0,4.96875 l 0,1.75 C 4.4075,5.9425 9.79125,4.5675 15.0625,2.0625 l 0,-0.84375 z m 0,1.40625 C 9.89374,5.19125 4.53125,6.78375 0,7.78125 L 0,10.75 C 3.99125,9.12374 9.56375,6.615 15.0625,3.34375 l 0,-0.71875 z m 0,1.84375 C 9.57624,8.0575 4.005,10.9375 0,12.84375 L 0,15.125 C 3.585,13.27749 8.82875,10.29625 15.0625,5.9375 l 0,-1.46875 z m 0,1.8125 C 10.21375,9.91625 5.27375,12.9425 1.40625,15.125 l 2.0625,0 c 2.71,-1.60751 6.005,-3.70125 9.28125,-6.15625 0.765,-0.5725 1.52375,-1.14 2.3125,-1.75 l 0,-0.9375 z m 0,1.5 c -3.43001,2.89 -6.8025,5.375 -9.65625,7.34375 l 9.65625,0 0,-7.34375 z"
       inkscape:connector-curvature="0" />
    <path
       style="fill:#ffffff;fill-opacity:1;fill-rule:nonzero;stroke:none"
       id="path4365"
       d="M 15.0625,0.875 C 9.66499,3.2075 4.66625,3.84375 1,4.125 0.65749,4.1525 0.32875,4.1975 0,4.21875 l 0,0.75 c 4.44625,-0.36 9.75125,-1.3675 15.0625,-3.75 l 0,-0.34375 z m 0,1.1875 C 9.79124,4.5675 4.4075,5.9425 0,6.71875 l 0,1.0625 C 4.53125,6.78375 9.89375,5.19125 15.0625,2.625 l 0,-0.5625 z m 0,1.28125 C 9.56374,6.615 3.99125,9.12375 0,10.75 l 0,2.09375 C 4.005,10.9375 9.57625,8.0575 15.0625,4.46875 l 0,-1.125 z m 0,2.59375 C 8.82874,10.29625 3.585,13.2775 0,15.125 l 1.40625,0 c 3.8675,-2.18251 8.8075,-5.20875 13.65625,-8.84375 l 0,-0.34375 z m 0,1.28125 c -0.78875,0.61001 -1.5475,1.1775 -2.3125,1.75 -3.27625,2.455 -6.57125,4.54875 -9.28125,6.15625 l 1.9375,0 c 2.85374,-1.96876 6.225,-4.45375 9.65625,-7.34375 l 0,-0.5625 z"
       inkscape:connector-curvature="0" />
    <path
       style="fill:#231f20;fill-opacity:1;fill-rule:nonzero;stroke:none"
       id="path4393"
       d="m 20.14963,15.1325 2.025,0 0,-4.43 3.41375,0 0,-1.59 -3.41375,0 0,-2.49 3.58875,0 0,-1.5925 -5.61375,0 0,10.1025 z m 7.00125,0 1.9375,0 0,-2.73625 c 0,-1.0725 0,-3.0375 1.57875,-3.0375 0.3475,0 0.69625,0.055 0.8675,0.16 l 0,-1.95375 c -0.2025,-0.0575 -0.40375,-0.0575 -0.5925,-0.0575 -1.15875,0 -1.95375,1.16875 -2.04125,1.86375 l -0.0275,0 0,-1.69125 -1.7225,0 0,7.4525 z m 5.83125,-5.39875 c 0.65,-0.49375 1.47625,-0.81 2.3,-0.81 1.1425,0 1.6775,0.405 1.6775,1.605 l -1.07125,0 c -0.8075,0 -1.76375,0.0725 -2.50125,0.435 -0.73875,0.36 -1.275,1.015 -1.275,2.12625 0,1.4175 1.28875,2.215 2.60625,2.215 0.8825,0 1.8525,-0.465 2.30125,-1.28625 l 0.02875,0 c 0.01375,0.23125 0.01375,0.7225 0.08625,1.11375 l 1.70625,0 c -0.04125,-0.5825 -0.07,-1.09875 -0.08625,-1.6675 -0.015,-0.54625 -0.02875,-1.1125 -0.02875,-1.86375 l 0,-0.9575 c 0,-2.19625 -0.9425,-3.13625 -3.2125,-3.13625 -0.8225,0 -1.83625,0.21625 -2.58875,0.5625 l 0.0575,1.66375 z m 0.9825,3.24125 c 0,-1.145 1.2875,-1.2875 2.15625,-1.2875 l 0.83875,0 c 0,0.58 -0.08625,1.11375 -0.40375,1.53375 -0.30375,0.405 -0.76625,0.665 -1.36125,0.665 -0.695,0 -1.23,-0.275 -1.23,-0.91125 m 13.22625,-5.295 -1.93875,0 0,3.64375 c 0,0.95625 -0.305,2.475 -1.7075,2.475 -1.24625,0 -1.26125,-1.22875 -1.26125,-2.14 l 0,-3.97875 -1.9375,0 0,4.70375 c 0,1.67625 0.7675,2.92125 2.53125,2.92125 1.015,0 1.8525,-0.465 2.445,-1.18625 l 0.03,0 0,1.01375 1.83875,0 0,-7.4525 z m 1.99625,7.4525 1.93625,0 0,-3.6475 c 0,-0.95625 0.305,-2.47375 1.71,-2.47375 1.24125,0 1.25875,1.22875 1.25875,2.14125 l 0,3.98 1.93875,0 0,-4.70625 c 0,-1.67625 -0.76875,-2.91875 -2.535,-2.91875 -1.01125,0 -1.835,0.3325 -2.44,1.18375 l -0.03,0 0,-1.01125 -1.83875,0 0,7.4525 z m 8.84,0 1.93875,0 0,-3.6475 c 0,-0.95625 0.305,-2.47375 1.70875,-2.47375 1.245,0 1.2575,1.22875 1.2575,2.14125 l 0,3.98 1.93625,0 0,-4.70625 c 0,-1.67625 -0.7675,-2.91875 -2.53,-2.91875 -1.0125,0 -1.85125,0.46 -2.34375,1.18375 l -0.02875,0 0,-4.41125 -1.93875,0 0,10.8525 z m 8.0725,-3.67625 c 0,2.14 1.43375,3.84875 3.8925,3.84875 2.47125,0 3.90375,-1.70875 3.90375,-3.84875 0,-2.46 -1.69,-3.94875 -3.90375,-3.94875 -2.19875,0 -3.8925,1.48875 -3.8925,3.94875 m 2.02625,-0.2325 c 0,-1.11375 0.61,-2.2125 1.86625,-2.2125 1.27125,0 1.88,1.07125 1.88,2.2125 0,1.24625 -0.39125,2.575 -1.88,2.575 -1.475,0 -1.86625,-1.345 -1.86625,-2.575 m 7.71125,3.90875 1.93875,0 0,-6.03375 1.6925,0 0,-1.41875 -1.6925,0 0,-0.925 c 0,-0.58 0.20125,-1.14375 0.8525,-1.14375 0.42,0 0.66625,0.16 0.84,0.26125 l 0.16,-1.6075 c -0.37625,-0.0875 -0.9275,-0.15875 -1.42125,-0.15875 -1.53,0 -2.37,1.0425 -2.37,2.53125 l 0,1.0425 -1.43375,0 0,1.41875 1.43375,0 0,6.03375 z m 6.19125,-4.46 c 0.08875,-0.9975 0.63375,-1.74875 1.72,-1.74875 1.085,0 1.52125,0.81 1.57875,1.74875 l -3.29875,0 z m 4.6025,2.46125 c -0.72375,0.4075 -1.5325,0.7525 -2.47625,0.7525 -1.19875,0 -2.0375,-0.68 -2.12625,-1.88 l 5.1525,0 c 0,-2.605 -0.78125,-4.49875 -3.55,-4.49875 -2.30875,0 -3.45375,1.77875 -3.45375,3.93375 0,2.445 1.4325,3.86375 3.89125,3.86375 1.04375,0 1.8525,-0.20375 2.5625,-0.59375 l 0,-1.5775 z m 1.9375,1.99875 1.93875,0 0,-2.73625 c 0,-1.0725 0,-3.0375 1.57875,-3.0375 0.34375,0 0.6925,0.055 0.87,0.16 l 0,-1.95375 c -0.205,-0.0575 -0.41,-0.0575 -0.59625,-0.0575 -1.15875,0 -1.955,1.16875 -2.03625,1.86375 l -0.03125,0 0,-1.69125 -1.72375,0 0,7.4525"
       inkscape:connector-curvature="0" />
  </g>
</svg>
<!-- version: 20090314, original size: 92.955879 15.305, border: 3% -->

<?xml version="1.0" encoding="UTF-8" standalone="no"?>
<!DOCTYPE svg PUBLIC "-//W3C//DTD SVG 1.0//EN" "http://www.w3.org/TR/2001/REC-SVG-20010904/DTD/svg10.dtd">
<!-- Created with Inkscape (http://www.inkscape.org/) by Marsupilami -->
<svg
   xmlns:svg="http://www.w3.org/2000/svg"
   xmlns="http://www.w3.org/2000/svg"
   version="1.0"
   width="1024"
   height="177"
   viewBox="-0.45915 -0.45915 93.874179 16.2233"
   id="svg5346">
  <defs
     id="defs5348" />
  <path
     d="M 0,5.6843419e-14 L 0,4.21875 C 0.32875,4.1975 0.6575,4.15125 1,4.125 C 4.66624,3.84374 9.665,3.2075 15.0625,0.875 L 15.0625,5.6843419e-14 L 0,5.6843419e-14 z M 15.0625,1.21875 C 9.75124,3.6 4.44625,4.61 0,4.96875 L 0,6.71875 C 4.4075,5.9425 9.79125,4.5675 15.0625,2.0625 L 15.0625,1.21875 z M 15.0625,2.625 C 9.89374,5.19125 4.53125,6.78375 0,7.78125 L 0,10.75 C 3.99125,9.12374 9.56375,6.615 15.0625,3.34375 L 15.0625,2.625 z M 15.0625,4.46875 C 9.57624,8.0575 4.005,10.9375 0,12.84375 L 0,15.125 C 3.585,13.27749 8.82875,10.29625 15.0625,5.9375 L 15.0625,4.46875 z M 15.0625,6.28125 C 10.21375,9.91625 5.27375,12.9425 1.40625,15.125 L 3.46875,15.125 C 6.17875,13.51749 9.47375,11.42375 12.75,8.96875 C 13.515,8.39625 14.27375,7.82875 15.0625,7.21875 L 15.0625,6.28125 z M 15.0625,7.78125 C 11.63249,10.67125 8.26,13.15625 5.40625,15.125 L 15.0625,15.125 L 15.0625,7.78125 z"
     id="path4341"
     style="fill:#009374;fill-opacity:1;fill-rule:nonzero;stroke:none" />
  <path
     d="M 15.0625,0.875 C 9.66499,3.2075 4.66625,3.84375 1,4.125 C 0.65749,4.1525 0.32875,4.1975 0,4.21875 L 0,4.96875 C 4.44625,4.60875 9.75125,3.60125 15.0625,1.21875 L 15.0625,0.875 z M 15.0625,2.0625 C 9.79124,4.5675 4.4075,5.9425 0,6.71875 L 0,7.78125 C 4.53125,6.78375 9.89375,5.19125 15.0625,2.625 L 15.0625,2.0625 z M 15.0625,3.34375 C 9.56374,6.615 3.99125,9.12375 0,10.75 L 0,12.84375 C 4.005,10.9375 9.57625,8.0575 15.0625,4.46875 L 15.0625,3.34375 z M 15.0625,5.9375 C 8.82874,10.29625 3.585,13.2775 0,15.125 L 1.40625,15.125 C 5.27375,12.94249 10.21375,9.91625 15.0625,6.28125 L 15.0625,5.9375 z M 15.0625,7.21875 C 14.27375,7.82876 13.515,8.39625 12.75,8.96875 C 9.47375,11.42375 6.17875,13.5175 3.46875,15.125 L 5.40625,15.125 C 8.25999,13.15624 11.63125,10.67125 15.0625,7.78125 L 15.0625,7.21875 z"
     id="path4365"
     style="fill:#ffffff;fill-opacity:1;fill-rule:nonzero;stroke:none" />
  <path
     d="M 20.14963,15.1325 L 22.17463,15.1325 L 22.17463,10.7025 L 25.58838,10.7025 L 25.58838,9.1125 L 22.17463,9.1125 L 22.17463,6.6225 L 25.76338,6.6225 L 25.76338,5.03 L 20.14963,5.03 L 20.14963,15.1325 z M 27.15088,15.1325 L 29.08838,15.1325 L 29.08838,12.39625 C 29.08838,11.32375 29.08838,9.35875 30.66713,9.35875 C 31.01463,9.35875 31.36338,9.41375 31.53463,9.51875 L 31.53463,7.565 C 31.33213,7.5075 31.13088,7.5075 30.94213,7.5075 C 29.78338,7.5075 28.98838,8.67625 28.90088,9.37125 L 28.87338,9.37125 L 28.87338,7.68 L 27.15088,7.68 L 27.15088,15.1325 z M 32.98213,9.73375 C 33.63213,9.24 34.45838,8.92375 35.28213,8.92375 C 36.42463,8.92375 36.95963,9.32875 36.95963,10.52875 L 35.88838,10.52875 C 35.08088,10.52875 34.12463,10.60125 33.38713,10.96375 C 32.64838,11.32375 32.11213,11.97875 32.11213,13.09 C 32.11213,14.5075 33.40088,15.305 34.71838,15.305 C 35.60088,15.305 36.57088,14.84 37.01963,14.01875 L 37.04838,14.01875 C 37.06213,14.25 37.06213,14.74125 37.13463,15.1325 L 38.84088,15.1325 C 38.79963,14.55 38.77088,14.03375 38.75463,13.465 C 38.73963,12.91875 38.72588,12.3525 38.72588,11.60125 L 38.72588,10.64375 C 38.72588,8.4475 37.78338,7.5075 35.51338,7.5075 C 34.69088,7.5075 33.67713,7.72375 32.92463,8.07 L 32.98213,9.73375 z M 33.96463,12.975 C 33.96463,11.83 35.25213,11.6875 36.12088,11.6875 L 36.95963,11.6875 C 36.95963,12.2675 36.87338,12.80125 36.55588,13.22125 C 36.25213,13.62625 35.78963,13.88625 35.19463,13.88625 C 34.49963,13.88625 33.96463,13.61125 33.96463,12.975 M 47.19088,7.68 L 45.25213,7.68 L 45.25213,11.32375 C 45.25213,12.28 44.94713,13.79875 43.54463,13.79875 C 42.29838,13.79875 42.28338,12.57 42.28338,11.65875 L 42.28338,7.68 L 40.34588,7.68 L 40.34588,12.38375 C 40.34588,14.06 41.11338,15.305 42.87713,15.305 C 43.89213,15.305 44.72963,14.84 45.32213,14.11875 L 45.35213,14.11875 L 45.35213,15.1325 L 47.19088,15.1325 L 47.19088,7.68 z M 49.18713,15.1325 L 51.12338,15.1325 L 51.12338,11.485 C 51.12338,10.52875 51.42838,9.01125 52.83338,9.01125 C 54.07463,9.01125 54.09213,10.24 54.09213,11.1525 L 54.09213,15.1325 L 56.03088,15.1325 L 56.03088,10.42625 C 56.03088,8.75 55.26213,7.5075 53.49588,7.5075 C 52.48463,7.5075 51.66088,7.84 51.05588,8.69125 L 51.02588,8.69125 L 51.02588,7.68 L 49.18713,7.68 L 49.18713,15.1325 z M 58.02713,15.1325 L 59.96588,15.1325 L 59.96588,11.485 C 59.96588,10.52875 60.27088,9.01125 61.67463,9.01125 C 62.91963,9.01125 62.93213,10.24 62.93213,11.1525 L 62.93213,15.1325 L 64.86838,15.1325 L 64.86838,10.42625 C 64.86838,8.75 64.10088,7.5075 62.33838,7.5075 C 61.32588,7.5075 60.48713,7.9675 59.99463,8.69125 L 59.96588,8.69125 L 59.96588,4.28 L 58.02713,4.28 L 58.02713,15.1325 z M 66.09963,11.45625 C 66.09963,13.59625 67.53338,15.305 69.99213,15.305 C 72.46338,15.305 73.89588,13.59625 73.89588,11.45625 C 73.89588,8.99625 72.20588,7.5075 69.99213,7.5075 C 67.79338,7.5075 66.09963,8.99625 66.09963,11.45625 M 68.12588,11.22375 C 68.12588,10.11 68.73588,9.01125 69.99213,9.01125 C 71.26338,9.01125 71.87213,10.0825 71.87213,11.22375 C 71.87213,12.47 71.48088,13.79875 69.99213,13.79875 C 68.51713,13.79875 68.12588,12.45375 68.12588,11.22375 M 75.83713,15.1325 L 77.77588,15.1325 L 77.77588,9.09875 L 79.46838,9.09875 L 79.46838,7.68 L 77.77588,7.68 L 77.77588,6.755 C 77.77588,6.175 77.97713,5.61125 78.62838,5.61125 C 79.04838,5.61125 79.29463,5.77125 79.46838,5.8725 L 79.62838,4.265 C 79.25213,4.1775 78.70088,4.10625 78.20713,4.10625 C 76.67713,4.10625 75.83713,5.14875 75.83713,6.6375 L 75.83713,7.68 L 74.40338,7.68 L 74.40338,9.09875 L 75.83713,9.09875 L 75.83713,15.1325 z M 82.02838,10.6725 C 82.11713,9.675 82.66213,8.92375 83.74838,8.92375 C 84.83338,8.92375 85.26963,9.73375 85.32713,10.6725 L 82.02838,10.6725 z M 86.63088,13.13375 C 85.90713,13.54125 85.09838,13.88625 84.15463,13.88625 C 82.95588,13.88625 82.11713,13.20625 82.02838,12.00625 L 87.18088,12.00625 C 87.18088,9.40125 86.39963,7.5075 83.63088,7.5075 C 81.32213,7.5075 80.17713,9.28625 80.17713,11.44125 C 80.17713,13.88625 81.60963,15.305 84.06838,15.305 C 85.11213,15.305 85.92088,15.10125 86.63088,14.71125 L 86.63088,13.13375 z M 88.56838,15.1325 L 90.50713,15.1325 L 90.50713,12.39625 C 90.50713,11.32375 90.50713,9.35875 92.08588,9.35875 C 92.42963,9.35875 92.77838,9.41375 92.95588,9.51875 L 92.95588,7.565 C 92.75088,7.5075 92.54588,7.5075 92.35963,7.5075 C 91.20088,7.5075 90.40463,8.67625 90.32338,9.37125 L 90.29213,9.37125 L 90.29213,7.68 L 88.56838,7.68 L 88.56838,15.1325"
     id="path4393"
     style="fill:#231f20;fill-opacity:1;fill-rule:nonzero;stroke:none" />
</svg>
<!-- version: 20090314, original size: 92.955879 15.305, border: 3% -->
